X: 3129
T: Beauties Of Autumn
R: hornpipe
M: 4/4
K: Edorian
E>G|:BEGB AFD>E|FB,DF A2B/c/d|e>fed BAFE|FdFE D2BA|
~G3E B,EGB|ADFA d2e>f|afef deBA|1 F2E>F E2E>G:|2 F2E>F E2F/G/A||
|:B2e>f eBef|g2f>e fdeB|A>BAF defa|bafe fdef|
B2e>f eBef|g2f>e fdeB|Aaef deBA|1 F2E>F E2F/G/A:|2 F2E>F E2E>G||

